src/assets/img/svg/back-in-time.svg

<svg width="24" height="21" viewBox="0 0 24 21" fill="none" xmlns="http://www.w3.org/2000/svg">
<path fill-rule="evenodd" clip-rule="evenodd" d="M13.4561 0.585938C8.08144 0.585938 3.70886 4.89277 3.57888 10.2546V10.5025H0.710938L5.05631 15.2106L9.28076 10.5025H6.05007V10.2546C6.1793 6.26062 9.4455 3.06621 13.4561 3.06621C17.5506 3.06621 20.8697 6.3959 20.8697 10.5025C20.8697 14.609 17.5506 17.9387 13.4561 17.9387C11.8154 17.9387 10.2987 17.4006 9.07067 16.496L7.37031 18.3143C9.04876 19.63 11.161 20.4159 13.4561 20.4159C18.9154 20.4159 23.3393 15.9784 23.3393 10.5025C23.3393 5.02654 18.9154 0.585947 13.4561 0.585947V0.585938ZM12.2469 4.45672V10.5024C12.2469 10.6596 12.2794 10.8168 12.3399 10.9642C12.4019 11.1115 12.4895 11.2461 12.6014 11.3572L16.4706 15.2264C16.813 15.005 17.1357 14.7564 17.4221 14.4669L14.6652 11.7116V4.45672H12.2469Z" fill="#7367F0"/>
</svg>

<svg width="24" height="21" fill="none" xmlns="http://www.w3.org/2000/svg">
  <path fill-rule="evenodd" clip-rule="evenodd" d="M13.456.586c-5.375 0-9.747 4.307-9.877 9.669v.247H.71l4.345 4.709 4.225-4.709H6.05v-.247c.128-3.994 3.394-7.189 7.405-7.189 4.095 0 7.414 3.33 7.414 7.436 0 4.107-3.32 7.437-7.414 7.437a7.372 7.372 0 0 1-4.385-1.443l-1.7 1.818a9.831 9.831 0 0 0 6.085 2.102c5.46 0 9.883-4.438 9.883-9.914 0-5.475-4.424-9.916-9.883-9.916Zm-1.21 3.87v6.046a1.22 1.22 0 0 0 .355.855l3.87 3.87a5.62 5.62 0 0 0 .951-.76l-2.757-2.755V4.457h-2.418Z" fill="#7367F0"/>
</svg>
